flaticon/music/electric-guitar.svg

<svg xmlns="http://www.w3.org/2000/svg" width="32" height="32" viewBox="0 0 24 24">
    <path d="M 9.402344 15.363281 L 6.054688 18.710938 L 5.773438 18.429688 L 9.121094 15.082031 C 9.277344 14.925781 9.277344 14.671875 9.121094 14.515625 C 8.964844 14.359375 8.710938 14.359375 8.554688 14.515625 L 5.207031 17.863281 L 4.925781 17.582031 L 8.671875 13.832031 C 8.828125 13.675781 8.828125 13.425781 8.671875 13.265625 C 8.515625 13.109375 8.261719 13.109375 8.105469 13.265625 L 4.359375 17.015625 L 3.792969 16.449219 C 3.714844 16.375 3.613281 16.332031 3.503906 16.332031 C 3.394531 16.335938 3.289062 16.382812 3.214844 16.460938 L 2.085938 17.683594 C 1.9375 17.84375 1.945312 18.085938 2.097656 18.238281 L 5.488281 21.632812 C 5.5625 21.707031 5.664062 21.75 5.769531 21.75 C 5.773438 21.75 5.777344 21.75 5.777344 21.75 C 5.886719 21.746094 5.992188 21.699219 6.066406 21.621094 L 7.195312 20.398438 C 7.34375 20.238281 7.335938 19.996094 7.1875 19.84375 L 6.621094 19.277344 L 9.96875 15.929688 C 10.125 15.773438 10.125 15.519531 9.96875 15.363281 C 9.8125 15.207031 9.558594 15.207031 9.402344 15.363281 Z M 5.761719 20.773438 L 2.933594 17.945312 L 3.519531 17.308594 L 6.347656 20.136719 Z M 5.761719 20.773438"/>
    <path d="M 23.875 0.886719 C 23.667969 0.261719 23.128906 -0.0625 22.394531 0.0078125 C 22.367188 0.0117188 21.773438 0.0664062 20.925781 0.332031 L 20.710938 0.117188 C 20.636719 0.0429688 20.535156 0 20.429688 0 L 19.628906 0 C 19.523438 0 19.421875 0.0429688 19.347656 0.117188 L 18.945312 0.515625 C 18.871094 0.59375 18.828125 0.691406 18.828125 0.800781 L 18.828125 1.296875 C 18.71875 1.363281 18.613281 1.433594 18.503906 1.507812 L 18.3125 1.316406 C 18.238281 1.242188 18.136719 1.199219 18.03125 1.199219 L 17.230469 1.199219 C 17.125 1.199219 17.023438 1.242188 16.945312 1.316406 L 16.546875 1.714844 C 16.472656 1.792969 16.429688 1.890625 16.429688 2 L 16.429688 2.796875 C 16.429688 2.90625 16.472656 3.007812 16.546875 3.082031 L 16.695312 3.226562 C 16.574219 3.449219 16.503906 3.6875 16.472656 3.929688 L 10.035156 11.457031 C 10.078125 11.242188 10.136719 11.011719 10.214844 10.769531 C 10.363281 10.296875 10.289062 9.785156 10.011719 9.367188 C 9.742188 8.960938 9.316406 8.703125 8.847656 8.65625 C 8.175781 8.59375 7.542969 8.933594 6.96875 9.667969 L 6.921875 9.726562 L 6.902344 9.796875 C 6.609375 10.757812 5.539062 13.339844 4.128906 13.71875 C 3.003906 14.019531 2.179688 14.429688 1.535156 15.015625 C -0.121094 16.519531 -0.410156 18.46875 0.730469 20.5 C 1.203125 21.339844 1.855469 22.089844 2.671875 22.722656 C 2.925781 22.917969 3.183594 23.101562 3.441406 23.261719 C 4.214844 23.753906 5.089844 24 5.964844 24 C 6.667969 24 7.375 23.839844 8.035156 23.515625 C 9.464844 22.8125 10.40625 21.449219 10.554688 19.867188 L 10.5625 19.761719 C 10.664062 18.378906 11.511719 17.199219 12.714844 16.761719 C 12.84375 16.714844 12.980469 16.671875 13.125 16.632812 C 13.445312 16.542969 13.71875 16.328125 13.878906 16.039062 C 14.023438 15.773438 14.054688 15.472656 13.972656 15.195312 C 13.816406 14.6875 13.296875 14.175781 11.691406 14.621094 C 11.683594 14.621094 11.589844 14.644531 11.441406 14.640625 L 18.746094 6.179688 C 18.84375 6.164062 18.941406 6.140625 19.035156 6.109375 C 19.277344 6.03125 19.503906 5.914062 19.714844 5.765625 C 20.039062 5.539062 20.285156 5.191406 20.414062 4.789062 C 20.429688 4.734375 20.445312 4.679688 20.460938 4.621094 C 20.542969 4.328125 20.628906 4.027344 20.953125 3.726562 C 21.109375 3.582031 21.523438 3.414062 21.828125 3.292969 L 21.980469 3.230469 C 22.03125 3.210938 22.125 3.195312 22.222656 3.175781 C 22.550781 3.117188 23.046875 3.027344 23.480469 2.5625 C 23.914062 2.09375 24.0625 1.453125 23.875 0.886719 Z M 19.792969 0.800781 L 20.257812 0.800781 L 20.429688 0.96875 L 20.429688 1.433594 L 20.261719 1.601562 L 19.792969 1.601562 L 19.628906 1.433594 L 19.628906 0.964844 Z M 17.394531 2 L 17.863281 2 L 18.03125 2.164062 L 18.03125 2.632812 L 17.863281 2.800781 L 17.394531 2.800781 L 17.230469 2.632812 L 17.230469 2.164062 Z M 15.679688 8.511719 L 14.5625 7.394531 L 16.628906 4.980469 C 16.683594 5.105469 16.746094 5.230469 16.828125 5.347656 C 17.070312 5.703125 17.398438 5.957031 17.769531 6.09375 Z M 14.109375 10.332031 L 13 9.222656 L 14.042969 8.003906 L 15.15625 9.117188 Z M 12.535156 12.152344 L 11.433594 11.050781 L 12.476562 9.832031 L 13.585938 10.9375 Z M 10.617188 14.339844 C 10.53125 14.277344 10.449219 14.203125 10.378906 14.117188 C 10.363281 14.105469 10.351562 14.089844 10.339844 14.078125 C 10.269531 13.992188 10.207031 13.898438 10.152344 13.800781 C 10.144531 13.785156 10.136719 13.769531 10.128906 13.753906 C 10.078125 13.648438 10.03125 13.539062 10 13.421875 C 9.996094 13.410156 9.992188 13.398438 9.988281 13.386719 C 9.957031 13.261719 9.933594 13.136719 9.921875 13.003906 C 9.917969 12.945312 9.914062 12.886719 9.914062 12.828125 L 10.914062 11.660156 L 12.011719 12.757812 L 10.636719 14.351562 C 10.628906 14.347656 10.625 14.34375 10.617188 14.339844 Z M 11.914062 15.390625 C 12.640625 15.1875 13.136719 15.199219 13.207031 15.425781 C 13.234375 15.519531 13.207031 15.601562 13.175781 15.65625 C 13.125 15.753906 13.023438 15.832031 12.914062 15.863281 C 12.75 15.90625 12.589844 15.957031 12.441406 16.011719 C 10.941406 16.554688 9.890625 18.003906 9.765625 19.703125 L 9.757812 19.792969 C 9.636719 21.097656 8.859375 22.21875 7.683594 22.796875 C 6.457031 23.402344 5.03125 23.324219 3.867188 22.585938 C 3.632812 22.4375 3.394531 22.273438 3.164062 22.09375 C 2.429688 21.523438 1.847656 20.855469 1.429688 20.109375 C 0.460938 18.386719 0.679688 16.871094 2.074219 15.605469 C 2.617188 15.113281 3.335938 14.757812 4.335938 14.488281 C 6.320312 13.957031 7.460938 10.664062 7.640625 10.105469 C 8.023438 9.636719 8.402344 9.417969 8.769531 9.453125 C 9 9.476562 9.210938 9.605469 9.34375 9.808594 C 9.488281 10.023438 9.527344 10.285156 9.449219 10.53125 C 9.222656 11.261719 9.113281 11.972656 9.117188 12.65625 C 9.117188 12.667969 9.113281 12.675781 9.113281 12.6875 C 9.113281 12.820312 9.117188 12.945312 9.125 13.0625 C 9.140625 13.28125 9.183594 13.492188 9.246094 13.695312 C 9.433594 14.300781 9.816406 14.808594 10.335938 15.117188 C 10.347656 15.121094 10.355469 15.125 10.363281 15.128906 C 10.421875 15.164062 10.484375 15.191406 10.554688 15.226562 C 10.554688 15.226562 10.554688 15.226562 10.558594 15.226562 C 11.28125 15.566406 11.855469 15.40625 11.914062 15.390625 Z M 22.894531 2.019531 C 22.644531 2.289062 22.359375 2.339844 22.085938 2.386719 C 21.941406 2.414062 21.808594 2.4375 21.679688 2.488281 L 21.53125 2.550781 C 21.128906 2.710938 20.671875 2.894531 20.40625 3.140625 C 19.921875 3.59375 19.785156 4.082031 19.695312 4.402344 C 19.679688 4.453125 19.667969 4.5 19.652344 4.546875 C 19.578125 4.785156 19.4375 4.984375 19.253906 5.113281 C 19.109375 5.214844 18.953125 5.296875 18.789062 5.351562 C 18.714844 5.375 18.640625 5.390625 18.570312 5.402344 C 18.554688 5.398438 18.535156 5.394531 18.519531 5.398438 C 18.210938 5.421875 17.90625 5.3125 17.667969 5.085938 C 17.402344 4.828125 17.25 4.464844 17.257812 4.105469 C 17.261719 4.097656 17.257812 4.089844 17.257812 4.082031 C 17.265625 3.921875 17.308594 3.757812 17.398438 3.597656 L 18.195312 3.597656 L 18.828125 2.964844 L 18.828125 2.253906 C 18.925781 2.183594 19.023438 2.117188 19.121094 2.054688 L 19.464844 2.398438 L 20.59375 2.398438 L 21.226562 1.765625 L 21.226562 1.074219 C 21.953125 0.851562 22.457031 0.804688 22.464844 0.804688 C 22.925781 0.761719 23.054688 0.949219 23.117188 1.136719 C 23.210938 1.421875 23.125 1.769531 22.894531 2.019531 Z M 22.894531 2.019531"/>
</svg>

<svg xmlns="http://www.w3.org/2000/svg" width="32" height="32" viewBox="0 0 24 24">
    <path d="M9.402 15.363l-3.347 3.348-.282-.281 3.348-3.348a.4.4 0 0 0-.566-.566l-3.348 3.347-.281-.281 3.746-3.75a.4.4 0 0 0-.567-.566l-3.746 3.75-.566-.567a.418.418 0 0 0-.29-.117.422.422 0 0 0-.288.129l-1.13 1.223a.397.397 0 0 0 .013.554l3.39 3.395a.4.4 0 0 0 .282.117h.007a.422.422 0 0 0 .29-.129l1.128-1.223a.401.401 0 0 0-.008-.554l-.566-.567L9.97 15.93a.4.4 0 0 0-.567-.567zm-3.64 5.41l-2.828-2.828.586-.636 2.828 2.828zm0 0"/>
    <path d="M23.875.887c-.207-.625-.746-.95-1.48-.88-.028.005-.622.06-1.47.325l-.214-.215A.4.4 0 0 0 20.43 0h-.801a.4.4 0 0 0-.281.117l-.403.399a.409.409 0 0 0-.117.285v.496c-.11.066-.215.137-.324.21l-.192-.19a.4.4 0 0 0-.28-.118h-.802a.416.416 0 0 0-.285.117l-.398.399A.409.409 0 0 0 16.43 2v.797c0 .11.043.21.117.285l.148.145c-.12.222-.191.46-.222.703l-6.438 7.527c.043-.215.102-.445.18-.687a1.64 1.64 0 0 0-.203-1.403 1.587 1.587 0 0 0-1.164-.71c-.672-.063-1.305.277-1.88 1.011l-.046.059-.02.07c-.293.96-1.363 3.543-2.773 3.922-1.125.3-1.95.71-2.594 1.297C-.12 16.52-.41 18.469.73 20.5a7.42 7.42 0 0 0 1.942 2.223c.254.195.512.379.77.539A4.694 4.694 0 0 0 5.964 24c.703 0 1.41-.16 2.07-.484a4.509 4.509 0 0 0 2.52-3.649l.008-.105c.101-1.383.949-2.563 2.152-3 .129-.047.265-.09.41-.13.32-.089.594-.304.754-.593.144-.266.176-.566.094-.844-.157-.508-.676-1.02-2.282-.574-.007 0-.101.024-.25.02l7.305-8.461c.098-.016.195-.04.29-.07a2.53 2.53 0 0 0 .679-.344 1.89 1.89 0 0 0 .7-.977 9.65 9.65 0 0 0 .046-.168c.082-.293.168-.594.492-.894.156-.145.57-.313.875-.434l.152-.063c.051-.02.145-.035.243-.054.328-.059.824-.149 1.257-.614.434-.468.582-1.109.395-1.675zM19.793.8h.465l.172.168v.465l-.168.168h-.469l-.164-.168v-.47zM17.395 2h.468l.168.164v.469l-.168.168h-.468l-.165-.168v-.469zM15.68 8.512l-1.117-1.117 2.066-2.415a2.1 2.1 0 0 0 .2.368c.241.355.57.609.94.746zm-1.57 1.82L13 9.222l1.043-1.218 1.113 1.113zm-1.575 1.82l-1.101-1.101 1.043-1.219 1.109 1.105zm-1.918 2.188a1.28 1.28 0 0 1-.238-.223c-.016-.012-.027-.027-.04-.039a1.919 1.919 0 0 1-.187-.277l-.023-.047a1.888 1.888 0 0 1-.14-.367 2.449 2.449 0 0 1-.067-.383c-.004-.059-.008-.117-.008-.176l1-1.168 1.098 1.098-1.375 1.594-.02-.012zm1.297 1.05c.727-.203 1.223-.19 1.293.036a.294.294 0 0 1-.031.23.436.436 0 0 1-.262.207 5.16 5.16 0 0 0-.473.149c-1.5.543-2.55 1.992-2.675 3.691l-.008.09a3.708 3.708 0 0 1-2.074 3.004 3.872 3.872 0 0 1-3.817-.211 8.823 8.823 0 0 1-.703-.492 6.605 6.605 0 0 1-1.734-1.985c-.97-1.722-.75-3.238.644-4.504.543-.492 1.262-.847 2.262-1.117 1.984-.531 3.125-3.824 3.305-4.383.382-.468.761-.687 1.129-.652.23.024.44.152.574.356a.833.833 0 0 1 .105.722 7.03 7.03 0 0 0-.332 2.125c0 .012-.004.02-.004.031 0 .133.004.258.012.376.016.218.059.43.121.632.188.606.57 1.114 1.09 1.422a.19.19 0 0 1 .027.012c.059.035.121.062.192.098h.004c.722.34 1.296.18 1.355.164zm10.98-13.37c-.25.27-.535.32-.808.367-.145.027-.277.05-.406.101l-.149.063c-.402.16-.86.344-1.125.59-.484.453-.62.941-.71 1.261-.016.051-.028.098-.044.145a1.077 1.077 0 0 1-.398.566c-.145.102-.3.184-.465.239-.074.023-.148.039-.219.05a.112.112 0 0 0-.05-.004 1.108 1.108 0 0 1-.852-.312 1.346 1.346 0 0 1-.41-.98c.004-.008 0-.016 0-.024.008-.16.05-.324.14-.484h.797l.633-.633v-.711c.098-.07.195-.137.293-.2l.344.344h1.129l.633-.632v-.692a6.664 6.664 0 0 1 1.238-.27c.46-.042.59.145.652.333.094.285.008.633-.222.883zm0 0"/>
</svg>
